apps/www/public/images/realtime/example-apps/dark/whiteboard.svg

<svg xmlns="http://www.w3.org/2000/svg" width="361" height="210" fill="none" viewBox="0 0 361 210"><path fill="#343434" fill-rule="evenodd" d="M192.5 35h-122v122h85l37-22z" clip-rule="evenodd"/><path fill="#3e3e3e" d="M70.5 35v-.5H70v.5zm122 0h.5v-.5h-.5zm-122 122H70v.5h.5zm85 0v.5h.137l.119-.07zm37-22 .256.43.244-.146V135zm-122-99.5h122v-1h-122zM71 157V35h-1v122zm84.5-.5h-85v1h85zm.256.93 37-22-.512-.86-37 22zM192 35v100h1V35z"/><path fill="#282828" d="M155.5 157v-22h37z"/><path stroke="#3fcf8e" stroke-linecap="round" stroke-linejoin="round" stroke-width="4" d="M52.5 99.5c1.667 7 7.2 20.8 16 20s10.5-41.5 11-62c-.61 20.5-1.4 58.5 11 58.5s11-32 12-47.5c-.445 11-1.8 31 5 31s8.394-18 9-26.5c-.856 12-4.2 35.1 3 35.5 9 .5 4.5-25.5 13.5-25s-1.5 27 9 26.5 5.07-23.943 13-25c7.5-1 1 16 7 16 4.8 0 8-8.333 9-12.5"/><path fill="#3fcf8e" d="m200.256 121.031-14.707-37.387c-.359-.907.516-1.807 1.429-1.487l38.62 13.525c.985.346 1.025 1.723.059 2.12l-15.881 6.539a1.14 1.14 0 0 0-.614.607l-6.805 16.109c-.398.94-1.729.92-2.101-.026m103.809 3.419c0-9.298-7.536-16.834-16.834-16.834h-59.904c-9.298 0-16.834 7.536-16.834 16.834s7.536 16.834 16.834 16.834h59.904c9.298 0 16.834-7.536 16.834-16.834"/><path fill="#ecedee" fill-rule="evenodd" d="M245.12 127.236a2.74 2.74 0 1 0 0-5.481 2.74 2.74 0 0 0 0 5.481m10.661 0a2.74 2.74 0 1 0 0-5.481 2.74 2.74 0 0 0 0 5.481m13.395-2.74a2.74 2.74 0 1 1-5.48 0 2.74 2.74 0 0 1 5.48 0" clip-rule="evenodd"/></svg>

<svg width="361" height="210" viewBox="0 0 361 210" fill="none" xmlns="http://www.w3.org/2000/svg">
<path fill-rule="evenodd" clip-rule="evenodd" d="M192.5 35H70.5V157H155.5L192.5 135V35Z" fill="#343434"/>
<path d="M70.5 35V34.5H70V35H70.5ZM192.5 35H193V34.5H192.5V35ZM70.5 157H70V157.5H70.5V157ZM155.5 157V157.5H155.637L155.756 157.43L155.5 157ZM192.5 135L192.756 135.43L193 135.284V135H192.5ZM70.5 35.5H192.5V34.5H70.5V35.5ZM71 157V35H70V157H71ZM155.5 156.5H70.5V157.5H155.5V156.5ZM155.756 157.43L192.756 135.43L192.244 134.57L155.244 156.57L155.756 157.43ZM192 35V135H193V35H192Z" fill="#3E3E3E"/>
<path d="M155.5 157L155.5 135L192.5 135L155.5 157Z" fill="#282828"/>
<path d="M52.5 99.5C54.1667 106.5 59.7 120.3 68.5 119.5C77.3 118.7 79 78 79.5 57.5C78.8906 78 78.1 116 90.5 116C102.9 116 101.5 84 102.5 68.5C102.055 79.5 100.7 99.5 107.5 99.5C114.3 99.5 115.894 81.5 116.5 73C115.644 85 112.3 108.1 119.5 108.5C128.5 109 124 83 133 83.5C142 84 131.5 110.5 142 110C152.5 109.5 147.07 86.0573 155 85C162.5 84 156 101 162 101C166.8 101 170 92.6667 171 88.5" stroke="#3FCF8E" stroke-width="4" stroke-linecap="round" stroke-linejoin="round"/>
<path d="M200.256 121.031L185.549 83.6442C185.19 82.7373 186.065 81.8369 186.978 82.1566L225.598 95.6824C226.583 96.0282 226.623 97.4049 225.657 97.8029L209.776 104.341C209.502 104.452 209.28 104.673 209.162 104.948L202.357 121.057C201.959 121.997 200.628 121.977 200.256 121.031ZM304.065 124.45C304.065 115.152 296.529 107.616 287.231 107.616H227.327C218.029 107.616 210.493 115.152 210.493 124.45C210.493 133.748 218.029 141.284 227.327 141.284H287.231C296.529 141.284 304.065 133.748 304.065 124.45Z" fill="#3FCF8E"/>
<path fill-rule="evenodd" clip-rule="evenodd" d="M245.12 127.236C246.634 127.236 247.861 126.009 247.861 124.496C247.861 122.982 246.634 121.755 245.12 121.755C243.607 121.755 242.38 122.982 242.38 124.496C242.38 126.009 243.607 127.236 245.12 127.236ZM255.781 127.236C257.295 127.236 258.522 126.009 258.522 124.496C258.522 122.982 257.295 121.755 255.781 121.755C254.268 121.755 253.041 122.982 253.041 124.496C253.041 126.009 254.268 127.236 255.781 127.236ZM269.176 124.496C269.176 126.009 267.949 127.236 266.436 127.236C264.922 127.236 263.695 126.009 263.695 124.496C263.695 122.982 264.922 121.755 266.436 121.755C267.949 121.755 269.176 122.982 269.176 124.496Z" fill="#ECEDEE"/>
</svg>
